X: 305
T: Beyhûde Yere...
C: Ercüment Berker
O: Turkey
F: http://compmusic.upf.edu/node/140
N: acemkurdi--sarki--aksak--beyhude_yere--ercument_berker
N: makam= acemkurdi
N: form= sarki
N: usul= aksak = 9/8
M: 9/8
L: 1/16
K: C _B   
Q: 1/4=168
%%MIDI tuningsystem comma53
c4 f4 e2gf f6 | ef efef edd2 e2ed c4  | \
w:  Bey hû de  ye *  re   |  res *  *  *  *  *  *  *  mim_ i le   | 
d2e2 f2g2 a2b2 a2g2 f2 | 
w:  uğ *  ra şı yor  | 
e2 f14z2  | c4 f4 e2gf f6 | ef efef edd2 e2ed c4  | 
w:  sun    |  Bey hû de  ye *  re   |  res *  *  *  *  *  *  *  mim_ i le   | 
d2e2 f2g2 a2b2 a2g2 f2 | e2 f14z2  | \
w:  uğ *  ra şı yor  |  sun    | 
f4 f2e2 e2e2 e6 | d4d2 dcc8-c2  | 
w:  Res mim  *  sa na  ne   |  is te di *  ğin   | 
A4 B2c2 d4 c2B2 A2 | B18  | A4 c2c2 c4 B4 A2 | \
w:  â şı kı  yâd_  |  et   |  â şı kı  yâd_  | 
A8f8z2  | f4 f2e2 e2e2 e6 | 
w:  et   SAZ  |  Res mim  *  sa na  ne   | 
d4d2 dcc8-c2  | A4 B2c2 d4 c2B2 A2 | B18  | \
w:  is te di *  ğin   |  â şı kı  yâd_  |  et   | 
A4 c2c2 c4 B4 A2 | A16z2  | 
w:  â şı kı  yâd_  |  et    | 
A4 _1/4B4 c2c2 _3/4d6 | _2/4B4c2 _B2A2 G2A4_2/4B2  | \
w:  Kalk sın  de di ğin   |  res mi  i çin *  de   | 
c4 _3/4d2d2 d2c2 e2d2 c2 | c8A8z2  | 
w:  *  ta şı yor  |  sun   SAZ  | 
A4 _1/4B4 c2c2 _3/4d6 | _2/4B4c2 _B2A2 G2A4_2/4B2  | \
w:  Kalk sın  de di ğin   |  res mi  i çin *  de   | 
c4 _3/4d2d2 d2c2 e2d2 c2 | c8f8z2  | 
w:  *  ta şı yor  |  sun   SAZ  | 
f4 f2e2 e2e2 e6 | d4d2 dcc8-c2  | A4 B2c2 d4 c2B2 A2 | B18  | \
w:  Res mim  *  sa na  ne   |  is te di *  ğin   |  â şı kı  yâd_  |  et   | 
A4 c2c2 c4 B4 A2 | 
w:  â şı kı  yâd_  | 
A8f8z2  | f4 f2e2 e2e2 e6 | d4d2 dcc8-c2  | \
w:  et   SAZ  |  Res mim  *  sa na  ne   |  is te di *  ğin   | 
A4 B2c2 d4 c2B2 A2 | 
w:  â şı kı  yâd_  | 
B18  | A4 c2c2 c4 B4 A2 | A16z2  | |


